X:1
T: Tombreackachie's Strathspey
C:William Marshall
R:Strathspey
Q: 128
K:D
M:4/4
L:1/16
|:B2|A3D AF3 E2B,2 B,2B2|A3D AF3 A2D2 A2F2|G3A BAGF E2B,2 B,2B2|A3D AF3 A2D2 D2B2|
A3D AF3 E2B,2 B,2B2|A3D AF3 A2D2 A2F2|G3A BAGF E2B,2 B,2B2|A3D AF3 A2D2 D2f2|
d3f d3f e2E2 E2f2|d3f d3f B2d2 A2F2|Ge3 Fd3 E2e2 e2g2|fd3 e3c d2D2 D2f2|
d3f d3f e2E2 E2f2|d3f d3f B2d2 A2F2|Ge3 Fd3 E2e2 e2g2|fd3 e3c d2D2 D2:|
